static/assets/images/icons/lifi.svg

<svg width="257" height="256" viewBox="0 0 257 256" fill="none" xmlns="http://www.w3.org/2000/svg">
<path d="M119.399 166.008L56.0513 180.687C53.7407 181.266 52.0078 183.584 52.0078 185.901V229.551C52.0078 233.221 54.896 235.538 58.5543 234.765L146.932 214.293C150.591 213.52 152.132 210.044 150.591 206.76L134.61 173.734C132.107 168.519 134.61 163.111 140.193 161.952L197.957 148.046C202.001 147.081 205.467 142.832 205.467 138.582V98.2169C205.467 94.5473 202.578 92.0366 198.92 93.0021L115.548 112.896C110.349 114.054 108.038 119.076 110.349 123.904L124.982 154.227C127.485 159.442 124.982 164.656 119.399 166.008Z" fill="black"/>
<path d="M77.8414 56.9395L94.4211 90.9528C96.5421 95.398 94.4211 100.036 89.6012 101.003L58.9482 108.153C55.0924 109.119 52.0078 112.984 52.0078 116.85V153.376C52.0078 159.56 57.0203 163.425 62.9967 162.072L91.5295 155.502C95.3849 154.729 98.4698 150.67 98.4698 146.805L98.6624 109.313C98.6624 104.095 102.904 98.8765 107.916 97.717L201.418 75.299C203.732 74.7193 205.467 72.4002 205.467 70.0811V26.4045C205.467 22.7326 202.575 20.2202 198.912 21.1865L81.5043 49.4024C77.8414 50.1754 76.2991 53.654 77.8414 56.9395Z" fill="black"/>
</svg>

<svg xmlns="http://www.w3.org/2000/svg" fill="none" viewBox="0 0 257 256"><path fill="#000" d="m119.399 166.008-63.348 14.679c-2.31.579-4.043 2.897-4.043 5.214v43.65c0 3.67 2.888 5.987 6.546 5.214l88.378-20.472c3.659-.773 5.2-4.249 3.659-7.533l-15.981-33.026c-2.503-5.215 0-10.623 5.583-11.782l57.764-13.906c4.044-.965 7.51-5.214 7.51-9.464V98.217c0-3.67-2.889-6.18-6.547-5.215l-83.372 19.894c-5.199 1.158-7.51 6.18-5.199 11.008l14.633 30.323c2.503 5.215 0 10.429-5.583 11.781"/><path fill="#000" d="m77.841 56.94 16.58 34.013c2.121 4.445 0 9.083-4.82 10.05l-30.653 7.15c-3.856.966-6.94 4.831-6.94 8.697v36.526c0 6.184 5.012 10.049 10.989 8.696l28.533-6.57c3.855-.773 6.94-4.832 6.94-8.697l.192-37.492c0-5.218 4.242-10.437 9.254-11.596l93.502-22.418c2.314-.58 4.049-2.899 4.049-5.218V26.404c0-3.671-2.892-6.184-6.555-5.218L81.504 49.403c-3.663.773-5.205 4.252-3.663 7.538"/></svg>
